src/assets/images/benefits/02.svg

<svg width="160" height="160" viewBox="0 0 160 160" fill="none" xmlns="http://www.w3.org/2000/svg">
<rect x="1" y="1" width="158" height="158" rx="39" fill="#171E25"/>
<g filter="url(#filter0_d_2_2380)">
<circle cx="80" cy="80.0503" r="28.0503" fill="url(#paint0_linear_2_2380)"/>
<path d="M88.416 74.4168C87.8179 74.0727 87.0488 74.0727 86.3653 74.4168L81.5804 77.2551L78.3335 79.0613L73.634 81.8996C73.0359 82.2437 72.2669 82.2437 71.5833 81.8996L67.9092 79.6634C67.3111 79.3193 66.8839 78.6312 66.8839 77.8572V73.5567C66.8839 72.8686 67.2256 72.1805 67.9092 71.7505L71.5833 69.6002C72.1814 69.2562 72.9504 69.2562 73.634 69.6002L77.3081 71.8365C77.9063 72.1805 78.3335 72.8686 78.3335 73.6427V76.481L81.5804 74.5888V71.6644C81.5804 70.9764 81.2386 70.2883 80.555 69.8582L73.7195 65.8158C73.1213 65.4717 72.3523 65.4717 71.6688 65.8158L64.6623 69.9442C63.9787 70.2883 63.637 70.9764 63.637 71.6644V79.7494C63.637 80.4374 63.9787 81.1255 64.6623 81.5556L71.5833 85.598C72.1814 85.9421 72.9504 85.9421 73.634 85.598L78.3335 82.8457L81.5804 80.9535L86.2798 78.2012C86.878 77.8572 87.647 77.8572 88.3305 78.2012L92.0046 80.3514C92.6028 80.6955 93.03 81.3836 93.03 82.1576V86.4581C93.03 87.1462 92.6882 87.8343 92.0046 88.2643L88.416 90.4146C87.8179 90.7586 87.0488 90.7586 86.3653 90.4146L82.6912 88.2643C82.093 87.9203 81.6658 87.2322 81.6658 86.4581V83.7058L78.4189 85.598V88.4364C78.4189 89.1244 78.7607 89.8125 79.4443 90.2426L86.3653 94.285C86.9634 94.6291 87.7324 94.6291 88.416 94.285L95.337 90.2426C95.9351 89.8985 96.3623 89.2105 96.3623 88.4364V80.2654C96.3623 79.5773 96.0206 78.8893 95.337 78.4592L88.416 74.4168Z" fill="#10151A"/>
</g>
<rect x="1" y="1" width="158" height="158" rx="39" stroke="#2A3744" stroke-width="2"/>
<defs>
<filter id="filter0_d_2_2380" x="4.94971" y="5" width="150.101" height="150.101" filterUnits="userSpaceOnUse" color-interpolation-filters="sRGB">
<feFlood flood-opacity="0" result="BackgroundImageFix"/>
<feColorMatrix in="SourceAlpha" type="matrix" values="0 0 0 0 0 0 0 0 0 0 0 0 0 0 0 0 0 0 127 0" result="hardAlpha"/>
<feOffset/>
<feGaussianBlur stdDeviation="23.5"/>
<feComposite in2="hardAlpha" operator="out"/>
<feColorMatrix type="matrix" values="0 0 0 0 0.509804 0 0 0 0 0.278431 0 0 0 0 0.898039 0 0 0 0.3 0"/>
<feBlend mode="normal" in2="BackgroundImageFix" result="effect1_dropShadow_2_2380"/>
<feBlend mode="normal" in="SourceGraphic" in2="effect1_dropShadow_2_2380" result="shape"/>
</filter>
<linearGradient id="paint0_linear_2_2380" x1="80" y1="52" x2="80" y2="108.101" gradientUnits="userSpaceOnUse">
<stop stop-color="#965EF4"/>
<stop offset="1" stop-color="#8247E5"/>
</linearGradient>
</defs>
</svg>

<svg width="160" height="160" fill="none" xmlns="http://www.w3.org/2000/svg"><rect x="1" y="1" width="158" height="158" rx="39" fill="#171E25"/><g filter="url(#filter0_d_2_2380)"><circle cx="80" cy="80.05" r="28.05" fill="url(#paint0_linear_2_2380)"/><path d="M88.416 74.417c-.598-.344-1.367-.344-2.05 0l-4.786 2.838-3.246 1.806-4.7 2.839c-.598.344-1.367.344-2.05 0l-3.675-2.237a2.1 2.1 0 01-1.025-1.806v-4.3c0-.688.342-1.377 1.025-1.806l3.674-2.15c.598-.345 1.367-.345 2.051 0l3.674 2.236a2.099 2.099 0 011.025 1.806v2.838l3.247-1.892v-2.925c0-.688-.341-1.376-1.025-1.806l-6.836-4.042c-.598-.344-1.367-.344-2.05 0l-7.007 4.128c-.683.344-1.025 1.032-1.025 1.72v8.085c0 .688.342 1.377 1.025 1.807l6.921 4.042c.598.344 1.367.344 2.051 0l4.7-2.752 3.246-1.892 4.7-2.753c.598-.344 1.367-.344 2.05 0l3.675 2.15a2.1 2.1 0 011.025 1.807v4.3c0 .688-.342 1.376-1.025 1.806l-3.589 2.15c-.598.345-1.367.345-2.05 0l-3.675-2.15a2.099 2.099 0 01-1.025-1.806v-2.752l-3.247 1.892v2.838c0 .688.342 1.376 1.025 1.807l6.921 4.042c.598.344 1.367.344 2.051 0l6.921-4.042a2.1 2.1 0 001.025-1.807v-8.17c0-.689-.341-1.377-1.025-1.807l-6.921-4.042z" fill="#10151A"/></g><rect x="1" y="1" width="158" height="158" rx="39" stroke="#2A3744" stroke-width="2"/><defs><linearGradient id="paint0_linear_2_2380" x1="80" y1="52" x2="80" y2="108.101" gradientUnits="userSpaceOnUse"><stop stop-color="#965EF4"/><stop offset="1" stop-color="#8247E5"/></linearGradient><filter id="filter0_d_2_2380" x="4.95" y="5" width="150.101" height="150.101" filterUnits="userSpaceOnUse" color-interpolation-filters="sRGB"><feFlood flood-opacity="0" result="BackgroundImageFix"/><feColorMatrix in="SourceAlpha" values="0 0 0 0 0 0 0 0 0 0 0 0 0 0 0 0 0 0 127 0" result="hardAlpha"/><feOffset/><feGaussianBlur stdDeviation="23.5"/><feComposite in2="hardAlpha" operator="out"/><feColorMatrix values="0 0 0 0 0.509804 0 0 0 0 0.278431 0 0 0 0 0.898039 0 0 0 0.3 0"/><feBlend in2="BackgroundImageFix" result="effect1_dropShadow_2_2380"/><feBlend in="SourceGraphic" in2="effect1_dropShadow_2_2380" result="shape"/></filter></defs></svg>
